public/images/icons/code.svg

<svg xmlns="http://www.w3.org/2000/svg" width="32" height="32" fill="none"><path fill="#9394a0" fill-opacity=".15" d="M1 10a1 1 0 0 1 1-1h29v21H5a4 4 0 0 1-4-4z"/><rect width="30.5" height="28.5" x=".75" y="1.75" stroke="#9394a0" stroke-linecap="round" stroke-linejoin="round" stroke-width="1.5" rx="4"/><path stroke="#9394a0" stroke-linecap="round" stroke-linejoin="round" stroke-width="1.5" d="M13.25 15.75 9.75 19l3.5 3.25m5.5-6.5 3.5 3.25-3.5 3.25m-14-14h22.5"/></svg>

<svg width="32" height="32" viewBox="0 0 32 32" fill="none" xmlns="http://www.w3.org/2000/svg">
<path d="M1 10C1 9.44772 1.44772 9 2 9H31V30H5C2.79086 30 1 28.2091 1 26V10Z" fill="#9394A0" fill-opacity="0.15"/>
<rect x="0.75" y="1.75" width="30.5" height="28.5" rx="4" stroke="#9394A0" stroke-width="1.5" stroke-linecap="round" stroke-linejoin="round"/>
<path d="M13.25 15.75L9.75 19L13.25 22.25" stroke="#9394A0" stroke-width="1.5" stroke-linecap="round" stroke-linejoin="round"/>
<path d="M18.75 15.75L22.25 19L18.75 22.25" stroke="#9394A0" stroke-width="1.5" stroke-linecap="round" stroke-linejoin="round"/>
<path d="M4.75 8.25H27.25" stroke="#9394A0" stroke-width="1.5" stroke-linecap="round" stroke-linejoin="round"/>
</svg>
